X: 17420
T: Highland Brigade At Magersfontein, The
R: waltz
M: 3/4
K: Amixolydian
|:A3/2B/c2ce|a3/2g/f2e2|e3/2c/A2Ac|e3/2f/c2B2|
e3/2c/A2Bc|ec a3/2g/f2|ga e3/2d/ cA|B3/2c/ A2A2:|
|:c3/2d/e2ea|fae2cA|c3/2d/e2ea|f3/4g/4a3/4f/4e2ec|
d3/4c/4B3/4c/4A2Bc|ec a3/2g/f2|ga e>d cA|B3/2c/ A2A2:|

